img/process/icon5.svg

<svg width="24" height="25" viewBox="0 0 24 25" fill="none" xmlns="http://www.w3.org/2000/svg">
<g clip-path="url(#clip0_30_17407)">
<path d="M14.8125 2.15674H13.9892C13.6988 1.33825 12.9167 0.750488 12 0.750488C11.0833 0.750488 10.3013 1.33825 10.0108 2.15674H9.1875C8.02434 2.15674 7.07812 3.10296 7.07812 4.26611C7.07812 4.65475 7.39261 4.96924 7.78125 4.96924H16.2188C16.6074 4.96924 16.9219 4.65475 16.9219 4.26611C16.9219 3.10296 15.9757 2.15674 14.8125 2.15674Z" fill="url(#paint0_linear_30_17407)"/>
<path d="M19.0312 3.56299H18.257C18.3033 3.79029 18.3281 4.02536 18.3281 4.26611C18.3281 5.42927 17.3819 6.37549 16.2188 6.37549H7.78125C6.61809 6.37549 5.67188 5.42927 5.67188 4.26611C5.67188 4.02536 5.69667 3.79029 5.74303 3.56299H4.96875C3.80559 3.56299 2.85938 4.50921 2.85938 5.67236V22.6411C2.85938 23.8043 3.80559 24.7505 4.96875 24.7505H19.0312C20.1944 24.7505 21.1406 23.8043 21.1406 22.6411V5.67236C21.1406 4.50921 20.1944 3.56299 19.0312 3.56299ZM9.89062 20.438H7.07812C6.68948 20.438 6.375 20.1235 6.375 19.7349C6.375 19.3462 6.68948 19.0317 7.07812 19.0317H9.89062C10.2793 19.0317 10.5938 19.3462 10.5938 19.7349C10.5938 20.1235 10.2793 20.438 9.89062 20.438ZM9.89062 15.5161H7.07812C6.68948 15.5161 6.375 15.2016 6.375 14.813C6.375 14.4243 6.68948 14.1099 7.07812 14.1099H9.89062C10.2793 14.1099 10.5938 14.4243 10.5938 14.813C10.5938 15.2016 10.2793 15.5161 9.89062 15.5161ZM9.89062 10.5942H7.07812C6.68948 10.5942 6.375 10.2798 6.375 9.89111C6.375 9.50247 6.68948 9.18799 7.07812 9.18799H9.89062C10.2793 9.18799 10.5938 9.50247 10.5938 9.89111C10.5938 10.2798 10.2793 10.5942 9.89062 10.5942ZM16.7159 20.644C16.9905 20.9186 16.9905 21.3636 16.7159 21.6383C16.5785 21.7756 16.3986 21.8443 16.2188 21.8443C16.0389 21.8443 15.8589 21.7756 15.7216 21.6383L14.8125 20.7291L13.9034 21.6383C13.766 21.7756 13.5861 21.8443 13.4062 21.8443C13.2264 21.8443 13.0464 21.7756 12.9091 21.6383C12.6345 21.3636 12.6345 20.9186 12.9091 20.644L13.8182 19.7349L12.9091 18.8257C12.6345 18.5511 12.6345 18.1061 12.9091 17.8315C13.1837 17.5568 13.6287 17.5568 13.9034 17.8315L14.8125 18.7406L15.7216 17.8315C15.9963 17.5568 16.4413 17.5568 16.7159 17.8315C16.9905 18.1061 16.9905 18.5511 16.7159 18.8257L15.8068 19.7349L16.7159 20.644ZM17.419 13.9038L15.3096 16.0132C15.1723 16.1506 14.9924 16.2192 14.8125 16.2192C14.6326 16.2192 14.4527 16.1506 14.3154 16.0132L12.9091 14.607C12.6345 14.3323 12.6345 13.8873 12.9091 13.6127C13.1838 13.3381 13.6288 13.3381 13.9034 13.6127L14.8125 14.5218L16.4248 12.9096C16.6994 12.6349 17.1444 12.6349 17.419 12.9096C17.6937 13.1842 17.6937 13.6292 17.419 13.9038ZM17.419 9.6851L15.3096 11.7945C15.1723 11.9318 14.9924 12.0005 14.8125 12.0005C14.6326 12.0005 14.4527 11.9318 14.3154 11.7945L12.9091 10.3882C12.6345 10.1136 12.6345 9.6686 12.9091 9.39396C13.1838 9.11932 13.6288 9.11932 13.9034 9.39396L14.8125 10.3031L16.4248 8.69083C16.6994 8.41619 17.1444 8.41619 17.419 8.69083C17.6937 8.96547 17.6937 9.41046 17.419 9.6851Z" fill="url(#paint1_linear_30_17407)"/>
</g>
<defs>
<linearGradient id="paint0_linear_30_17407" x1="7.07812" y1="2.85986" x2="16.9219" y2="2.85986" gradientUnits="userSpaceOnUse">
<stop stop-color="#6A11CB"/>
<stop offset="1" stop-color="#2575FC"/>
</linearGradient>
<linearGradient id="paint1_linear_30_17407" x1="2.85938" y1="14.1567" x2="21.1406" y2="14.1567" gradientUnits="userSpaceOnUse">
<stop stop-color="#6A11CB"/>
<stop offset="1" stop-color="#2575FC"/>
</linearGradient>
<clipPath id="clip0_30_17407">
<rect width="24" height="24" fill="white" transform="translate(0 0.750488)"/>
</clipPath>
</defs>
</svg>

<svg width="24" height="25" viewBox="0 0 24 25" fill="none" xmlns="http://www.w3.org/2000/svg"><g clip-path="url(#clip0_30_17407)"><path d="M14.813 2.157h-.824A2.114 2.114 0 0012 .75c-.917 0-1.699.588-1.99 1.407h-.822c-1.164 0-2.11.946-2.11 2.11 0 .388.315.702.703.702h8.438a.703.703 0 00.703-.703c0-1.163-.946-2.11-2.11-2.11z" fill="url(#paint0_linear_30_17407)"/><path d="M19.031 3.563h-.774c.046.227.071.462.071.703 0 1.163-.946 2.11-2.11 2.11H7.782a2.112 2.112 0 01-2.11-2.11c0-.24.026-.476.072-.703H4.97c-1.163 0-2.11.946-2.11 2.11V22.64c0 1.163.947 2.11 2.11 2.11h14.06c1.163 0 2.11-.947 2.11-2.11V5.672a2.112 2.112 0 00-2.11-2.109zm-9.14 16.875H7.078a.703.703 0 110-1.406h2.813a.703.703 0 110 1.406zm0-4.922H7.078a.703.703 0 110-1.406h2.813a.703.703 0 110 1.406zm0-4.922H7.078a.703.703 0 110-1.406h2.813a.703.703 0 110 1.406zm6.825 10.05a.703.703 0 11-.994.994l-.91-.909-.909.91a.701.701 0 01-.994 0 .703.703 0 010-.995l.91-.91-.91-.908a.703.703 0 11.994-.995l.91.91.909-.91a.703.703 0 11.994.995l-.91.909.91.909zm.703-6.74l-2.11 2.11a.7.7 0 01-.994 0l-1.406-1.407a.703.703 0 11.994-.994l.91.909 1.612-1.612a.703.703 0 11.994.994zm0-4.219l-2.11 2.11a.7.7 0 01-.994 0l-1.406-1.407a.703.703 0 11.994-.994l.91.91 1.612-1.613a.703.703 0 11.994.994z" fill="url(#paint1_linear_30_17407)"/></g><defs><linearGradient id="paint0_linear_30_17407" x1="7.078" y1="2.86" x2="16.922" y2="2.86" gradientUnits="userSpaceOnUse"><stop stop-color="#6A11CB"/><stop offset="1" stop-color="#2575FC"/></linearGradient><linearGradient id="paint1_linear_30_17407" x1="2.859" y1="14.157" x2="21.141" y2="14.157" gradientUnits="userSpaceOnUse"><stop stop-color="#6A11CB"/><stop offset="1" stop-color="#2575FC"/></linearGradient><clipPath id="clip0_30_17407"><path fill="#fff" transform="translate(0 .75)" d="M0 0h24v24H0z"/></clipPath></defs></svg>
